symbols/web/bookmark/materialsymbolsoutlined/bookmark_wght100grad200_24px.svg

<svg xmlns="http://www.w3.org/2000/svg" height="24" width="24"><path d="m6.9 17.95 5.1-2.2 5.1 2.2V5.55q0-.3-.25-.55-.25-.25-.55-.25H7.7q-.3 0-.55.25-.25.25-.25.55ZM5.55 20V5.55q0-.925.613-1.538Q6.775 3.4 7.7 3.4h8.6q.925 0 1.537.612.613.613.613 1.538V20L12 17.25ZM17.1 4.75H6.9 17.1Z"/></svg>

<svg xmlns="http://www.w3.org/2000/svg" height="24" width="24"><path d="M6.9 17.95 12 15.75 17.1 17.95V5.55Q17.1 5.25 16.85 5Q16.6 4.75 16.3 4.75H7.7Q7.4 4.75 7.15 5Q6.9 5.25 6.9 5.55ZM5.55 20V5.55Q5.55 4.625 6.163 4.012Q6.775 3.4 7.7 3.4H16.3Q17.225 3.4 17.837 4.012Q18.45 4.625 18.45 5.55V20L12 17.25ZM17.1 4.75H12H6.9Q6.9 4.75 7.15 4.75Q7.4 4.75 7.7 4.75H16.3Q16.6 4.75 16.85 4.75Q17.1 4.75 17.1 4.75Z"/></svg>
